!!key: tele-40-11-Fan-Pre-02-Flute
!!!COM: Telemann, Georg Philipp
!!!CDT: 1681/03/14-1767/06/25
!!!CBL: Magdeburg
!!!CDL: Hamburg
!!!CNT: German
!!!TWV: 40:11
!!!TWV-genre: 40
!!!TWV-work: 11
!!!OPR: 12 Fantasias for transverse flute without bass
!!!OTL: Fantasia 10
!!!OMD: Presto
!!!OMV: 2
!!!ODT: ca. 1732–1733
!!!AST: Late Baroque
!!!AGN: Fantasia
!!!AMT: Simple quadruple
!!!AIN: Transverse flute
**kern
*ICww
*Iflt
*clefG2
*k[f#c#g#]
*f#:
*M4/4
*met(c)
4cc#
4cc#
=
4f#
4f#
4dd
4dd
=
2cc#
4ff#
4a
=
4b
4gg#
4cc#
4gg#
=
4aa
4f#
4ff#
8ff#L
8eeJ
=
4dd#X
4ff#
4b
4dd#
=
2e
4gg#
8gg#L
8ff#J
!!LO:LB:g=original
=
4ee#X
4gg#
4cc#
4ee#
=
2f#
4ff#
4ff#
=
4cc#
4cc#
4aa
4aa
=
2gg#
4ccc#
4ee
=
4ff#
4ddd#X
4gg#
4ddd#
=
4eee
4cc#
4aa
4gg#
=
4ff##X
4gg#
4dd
4cc#
!!LO:LB:g=original
=
2b#X
4gg#
4ff#
=
4ee#X
4ff#
4cc#
4bn
=
2a#X
4ff#
4een
=
4dd#X
4ee
4b
4an
=
2g#
4ee
4ee
=
4a
4a
4ff#
4ff#
=
2ee
4aa
4cc#
!!LO:LB:g=original
=
4dd
4bb
4ee
4bb
=
4ccc#
4a
4ff#
8ff#L
8eeJ
=
4dd
8ddL
8cc#J
4b
8bL
8aJ
=
4g#
4e
4cc#
4e
=
4b
4e
4a
4e
=
4b
4e
4ee
8ff#L
8gg#J
!!LO:LB:g=original
=
4aa
4a
4e
4g#
=
2a
4cc#
4f#
=
4dd
4b
4ee
4f#
=
8ddL
8b
8dd
8eeJ
4ff#
4ff#
=
4b
4b
4ggn
4gg
=
2ff#
4bb
4dd
=
4ee
4ccc#
4ff#
4ccc#
!!LO:LB:g=original
=
4ddd
4b
4f#
4a#X
=
2b
4bb
4dd
=
4gg#X
4ee
4aa
4cc#
=
4ff#
8ddL
8eeJ
4ff#
4a
=
4dd#X
4b
4ee
4g#
=
4cc#
8aL
8bJ
4cc#
4cc#
!!LO:LB:g=original
=
4f#
4f#
4dd
4dd
=
2cc#
4ff#
4a
=
4b
4gg#
4cc#
4gg#
=
4aa
4f#
4dd
4cc#
=
4b#X
4cc#
4ggn
4ff#
=
2ee#X
4cc#
4bn
!!LO:LB:g=original
=
4a#X
4b
4ff#
4een
=
2dd#X
4b
4an
=
4g#
4a
4ee
4ddn
=
2cc#
4ccc#
4ccc#
=
4ff#
4ff#
4ddd
4ddd
=
2ccc#
4ff#
4a
=
4b
4gg#
4cc#
4gg#
!!LO:LB:g=original
=
4aa
4ff#
4cc#
4ee#X
=
2ff#
4dd
8ddL
8cc#J
=
4b
8bL
8aJ
4g#
8g#L
8f#J
=
4e#X
4cc#
4gg#
4cc#
=
4f#
4cc#
4aa
4cc#
=
4e#X
4cc#
4gg#
4cc#
!!LO:LB:g=original
=
4r
8gg#L
8aaJ
4bb
8aaL
8gg#J
=
4aa
4ff#
4bb
8aaL
8gg#J
=
4aa
4ff#
4cc#
4ee#X
=
4ff#
4f#
4dd
8cc#L
8bJ
=
4cc#
4a
4b
4cc#
=
1f#
==
*-
!!!RTL1: G. PH. Telemann: Twelve Fantasias for Flute without Bass TWV 40:2-13
!!!RPN1: D'Arcangelo, Rita
!!!RMM1: Da Vinci Classics
!!!RC#1: DV-C00440
!!!RRD1: 2022
!!!RLC1: Andreaskirche, Berlin, Germany
!!!RDT1: 16 September 2020, 17 September 2020
!!!RT#1: 10
!!!RTL2: The Telemann Files: 12 Fantasies for Solo Flute
!!!RPN2: Choi, Jasmine
!!!RMM2: Austrian Gramophone
!!!RC#2: AG0001
!!!RRD2: February 2015
!!!RLC2: LeFrak Hall, Queens, USA
!!!RDT2: 9 June 2014, 10 June 2014
!!!RT#2: 10
!!!RTL3: Georg Philipp Telemann: Twelve Fantasies for Flute
!!!RPN3: Robertello, Thomas
!!!RMM3: Delos
!!!RC#3: DE3396
!!!RRD3: 1 June 2009
!!!RLC3: Clear Creek Recording, Keene, California
!!!RDT3: Unknown
!!!RT#3: 10
